packages/ffe-icons/icons/filled/md/nest_mini.svg

<svg xmlns="http://www.w3.org/2000/svg" height="24" viewBox="0 -960 960 960" width="24"><path d="M300-404.616q14.692 0 25.038-10.346T335.384-440q0-14.692-10.346-25.038T300-475.384q-14.692 0-25.038 10.346T264.616-440q0 14.692 10.346 25.038T300-404.616Zm120 0q14.692 0 25.038-10.346T455.384-440q0-14.692-10.346-25.038T420-475.384q-14.692 0-25.038 10.346T384.616-440q0 14.692 10.346 25.038T420-404.616Zm120 0q14.692 0 25.038-10.346T575.384-440q0-14.692-10.346-25.038T540-475.384q-14.692 0-25.038 10.346T504.616-440q0 14.692 10.346 25.038T540-404.616Zm120 0q14.692 0 25.038-10.346T695.384-440q0-14.692-10.346-25.038T660-475.384q-14.692 0-25.038 10.346T624.616-440q0 14.692 10.346 25.038T660-404.616Zm-180 320q-74.038 0-138.699-28.134-64.66-28.135-112.538-76.013T152.75-301.301Q124.616-365.962 124.616-440q0-139.154 93.423-241.269 93.423-102.116 231.962-113.269V-920q0-12.75 8.628-21.375 8.629-8.624 21.384-8.624 12.756 0 21.371 8.624 8.615 8.625 8.615 21.375v125.462q138.539 11.153 231.962 113.269Q835.384-579.154 835.384-440q0 74.038-28.134 138.699-28.135 64.66-76.013 112.538T618.699-112.75Q554.038-84.616 480-84.616Z"/></svg>

<svg xmlns="http://www.w3.org/2000/svg" height="24" viewBox="0 -960 960 960" width="24"><path d="M300-404.62q14.69 0 25.04-10.34 10.34-10.35 10.34-25.04t-10.34-25.04q-10.35-10.34-25.04-10.34t-25.04 10.34q-10.34 10.35-10.34 25.04t10.34 25.04q10.35 10.34 25.04 10.34Zm120 0q14.69 0 25.04-10.34 10.34-10.35 10.34-25.04t-10.34-25.04q-10.35-10.34-25.04-10.34t-25.04 10.34q-10.34 10.35-10.34 25.04t10.34 25.04q10.35 10.34 25.04 10.34Zm120 0q14.69 0 25.04-10.34 10.34-10.35 10.34-25.04t-10.34-25.04q-10.35-10.34-25.04-10.34t-25.04 10.34q-10.34 10.35-10.34 25.04t10.34 25.04q10.35 10.34 25.04 10.34Zm120 0q14.69 0 25.04-10.34 10.34-10.35 10.34-25.04t-10.34-25.04q-10.35-10.34-25.04-10.34t-25.04 10.34q-10.34 10.35-10.34 25.04t10.34 25.04q10.35 10.34 25.04 10.34Zm-180 320q-74.04 0-138.7-28.13-64.66-28.13-112.54-76.01-47.88-47.88-76.01-112.54-28.13-64.66-28.13-138.7 0-139.15 93.42-241.27Q311.46-783.38 450-794.54V-920q0-12.75 8.63-21.37 8.63-8.63 21.38-8.63 12.76 0 21.37 8.63Q510-932.75 510-920v125.46q138.54 11.16 231.96 113.27Q835.38-579.15 835.38-440q0 74.04-28.13 138.7-28.13 64.66-76.01 112.54-47.88 47.88-112.54 76.01Q554.04-84.62 480-84.62Z"/></svg>
